X: 8
T: Captain Campbell
R: strathspey
M: 4/4
L: 1/8
K: Amin
|: G |E<AA>B c>AB>G | D<GG>A B>d c/B/A/G/ |
E<AA>B c>Bc>g | d<Bg>B A2-A :|
|: G |A<aa>g e>dc<g | e>dc>e d/c/B/A/ G>e |
[1 A<aa>g e>dc<g | d<Bg>B A2-A :|
[2 A<aa>A d>dc<e | d<Bg>B A2-A ||


Tune 1557	Setting 23219

